X: 1
T: Leitrim Fancy, The
Z: Phantom Button
S: https://thesession.org/tunes/3252#setting3252
R: hornpipe
M: 4/4
L: 1/8
K: Dmaj
AG|:FAEA DEFG|A/B/A GB A2de|fdge agec|dBAF GBAG|
FAEA DEFG|A/B/A GB A2de|fdge agec|1Addc d2AG:|2Addc d2zg||
fefg afdg|fefg a2 e/f/g|agec dfec|dcAF G3e|fefg afdg|
fefg a2 e/f/g|agec dfec|Addc d2zg|fefg afdg|fefg a2 e/f/g|agec dfec|
dcAF GBAG|FAEA DEFG|A/B/A GB A2de|fdge agec|Addc d2||
